<?xml version="1.0" encoding="UTF-8"?>
<map version="1.10" tiledversion="1.12.2" orientation="orthogonal" renderorder="right-down" width="52" height="50" tilewidth="64" tileheight="64" infinite="0" nextlayerid="5" nextobjectid="411">
 <tileset firstgid="1" source="../tilesets/world_tileset.tsx"/>
 <tileset firstgid="211" name="Objects" tilewidth="128" tileheight="192" tilecount="14" columns="0">
  <grid orientation="orthogonal" width="1" height="1"/>
  <tile id="0">
   <image source="../graphics/objects/grassrock1.png" width="60" height="60"/>
  </tile>
  <tile id="1">
   <image source="../graphics/objects/grassrock2.png" width="56" height="60"/>
  </tile>
  <tile id="2">
   <image source="../graphics/objects/green_tree.png" width="128" height="192"/>
  </tile>
  <tile id="3">
   <image source="../graphics/objects/green_tree_bushy.png" width="128" height="192"/>
  </tile>
  <tile id="4">
   <image source="../graphics/objects/green_tree_small.png" width="64" height="128"/>
  </tile>
  <tile id="5">
   <image source="../graphics/objects/ice_tree.png" width="128" height="192"/>
  </tile>
  <tile id="6">
   <image source="../graphics/objects/ruin_pillar.png" width="64" height="192"/>
  </tile>
  <tile id="7">
   <image source="../graphics/objects/ruin_pillar_broke.png" width="64" height="104"/>
  </tile>
  <tile id="8">
   <image source="../graphics/objects/ruin_pillar_broke_alt.png" width="64" height="128"/>
  </tile>
  <tile id="9">
   <image source="../graphics/objects/sandrock1.png" width="60" height="60"/>
  </tile>
  <tile id="10">
   <image source="../graphics/objects/sandrock2.png" width="56" height="60"/>
  </tile>
  <tile id="11">
   <image source="../graphics/objects/palm.png" width="128" height="192"/>
  </tile>
  <tile id="12">
   <image source="../graphics/objects/palm_alt.png" width="128" height="192"/>
  </tile>
  <tile id="13">
   <image source="../graphics/objects/palm_small.png" width="64" height="128"/>
  </tile>
 </tileset>
 <tileset firstgid="225" source="../../../learn-pygame/Vampire survivor/data/tilesets/world_tileset.tsx"/>
 <layer id="1" name="Ground" width="52" height="50">
  <data encoding="csv">
102,102,102,102,102,102,102,102,102,102,102,102,296,42,296,296,296,296,296,296,296,296,296,296,296,42,42,42,42,42,42,42,42,42,42,42,42,42,42,42,42,42,42,131,165,165,165,165,184,185,186,165,
102,102,102,102,102,102,102,102,102,102,102,102,42,42,42,42,42,42,42,42,42,42,42,42,42,296,296,296,296,296,296,296,296,296,296,296,296,296,296,296,296,296,296,131,165,165,184,185,195,195,196,165,
102,91,92,93,102,102,102,102,102,102,102,296,296,266,266,266,266,266,266,296,296,296,296,296,296,296,296,296,296,296,296,296,296,296,296,296,296,296,296,296,296,296,296,141,165,165,194,195,195,205,206,165,
102,101,102,103,102,102,102,102,102,102,296,296,296,239,266,266,266,266,266,296,296,296,296,296,296,296,296,296,296,296,296,296,296,296,296,296,296,296,296,296,296,296,296,296,141,165,204,205,206,165,165,165,
102,111,112,113,102,102,102,102,102,102,296,296,266,266,266,266,266,266,266,296,296,296,296,296,296,296,296,296,296,296,42,296,296,42,296,296,296,296,296,296,296,296,296,296,296,131,165,165,165,165,165,165,
102,102,102,102,102,67,68,68,68,68,232,232,232,233,239,266,266,266,266,266,266,231,232,232,232,232,232,232,232,232,232,232,232,233,296,296,231,232,232,232,232,232,232,232,232,128,129,165,165,165,165,165,
102,102,94,95,96,300,102,102,102,102,296,42,296,238,239,266,266,266,266,266,266,240,42,42,42,42,296,296,296,296,296,296,296,248,233,296,241,42,42,42,296,296,296,296,296,141,139,142,165,165,165,165,
102,102,104,105,106,300,102,102,102,296,296,42,296,248,249,249,249,233,266,266,266,240,296,296,296,42,42,296,296,296,296,296,42,42,238,296,251,230,42,42,42,42,42,296,296,296,243,296,141,142,165,165,
102,102,114,115,116,300,102,102,296,296,296,296,42,42,42,42,296,248,233,266,266,240,296,296,296,296,296,296,228,229,230,42,42,296,238,296,42,300,42,42,42,42,42,42,42,296,243,296,42,42,141,165,
102,102,102,102,102,300,102,102,296,296,296,42,296,296,296,42,42,296,243,266,231,250,296,296,296,228,229,229,253,42,240,42,296,296,248,233,42,27,230,42,42,42,42,42,228,229,42,296,42,42,296,141,
102,102,102,102,296,251,230,296,296,296,42,228,229,229,6,296,42,42,243,266,241,296,296,296,42,243,42,42,296,296,27,6,296,296,296,248,233,42,27,5,5,6,42,228,253,42,42,42,42,296,296,296,
102,102,296,296,296,296,240,296,228,229,229,253,296,296,251,230,296,42,243,266,241,296,296,296,42,243,296,7,232,233,42,16,296,296,296,42,248,9,42,296,296,251,252,29,42,42,42,42,42,296,296,296,
42,42,296,296,296,42,251,229,253,42,42,42,42,42,42,240,296,296,243,266,251,230,296,42,228,253,296,17,42,14,296,27,5,6,42,42,296,24,25,249,249,249,249,249,249,249,233,42,296,296,296,296,
296,296,296,296,296,42,42,42,42,42,42,42,42,42,42,240,296,296,248,233,296,241,42,296,248,233,296,17,42,24,25,25,25,26,42,296,296,42,296,296,296,296,296,296,296,296,243,42,42,296,296,296,
296,296,296,296,296,42,42,42,42,42,42,42,42,42,42,240,42,42,42,243,296,241,296,296,296,238,296,27,6,42,42,42,42,42,296,296,42,296,296,296,296,296,296,296,296,228,253,296,296,296,296,296,
296,296,296,296,296,231,249,249,249,249,249,249,249,233,42,240,42,42,42,243,296,251,230,296,296,248,233,296,27,230,296,296,296,296,296,296,296,42,42,296,228,229,229,229,229,253,296,296,296,296,296,296,
296,296,296,296,296,300,296,296,296,296,42,296,296,24,249,250,42,42,42,243,296,231,250,296,296,296,248,233,296,251,229,229,229,229,230,296,296,296,296,296,248,233,296,296,296,296,296,296,296,296,296,296,
296,296,296,296,296,300,296,296,296,296,42,296,42,296,42,42,42,42,42,243,296,241,296,296,296,296,296,243,296,296,7,8,9,296,251,252,230,296,296,42,296,248,249,233,296,296,296,296,296,296,296,296,
296,296,296,296,296,300,296,296,296,296,296,296,296,296,296,296,296,296,296,243,296,240,296,296,296,296,296,243,296,7,26,42,24,8,249,233,251,6,42,296,296,296,296,248,233,296,296,296,296,296,296,296,
296,296,42,42,42,300,42,296,296,228,252,230,296,296,296,296,296,228,229,253,296,240,42,296,296,296,42,243,296,16,296,296,42,296,296,238,42,251,252,230,296,296,296,296,238,296,296,296,296,296,296,296,
296,296,42,42,42,300,296,296,228,253,296,240,296,296,296,296,42,243,296,296,296,240,296,296,42,42,228,296,296,16,296,296,296,42,42,248,233,42,296,240,296,296,296,296,238,296,296,296,296,296,296,296,
296,296,296,296,296,300,296,296,238,296,296,240,296,296,296,296,42,248,233,296,296,240,296,296,296,42,238,296,296,251,6,296,296,296,296,296,248,233,296,240,296,296,296,42,238,296,296,296,296,296,296,296,
296,296,296,296,296,251,229,229,253,296,296,251,230,296,296,296,42,42,248,233,242,251,230,296,296,296,248,233,296,296,17,296,296,296,296,296,296,238,296,240,296,296,42,296,238,296,296,296,296,296,296,296,
296,296,42,42,42,296,296,296,296,296,296,296,251,230,296,296,296,296,296,248,233,296,300,296,296,296,296,248,232,233,251,6,42,42,42,296,296,238,296,240,296,296,296,296,238,296,296,296,296,296,296,296,
296,296,296,42,42,296,296,296,296,296,296,296,231,250,296,42,42,296,296,296,238,296,300,296,296,296,296,296,296,243,42,241,42,42,42,42,42,248,232,250,296,296,296,42,238,296,296,296,296,296,296,296,
296,296,296,42,42,296,296,296,7,25,25,25,26,296,296,296,42,42,42,42,238,296,300,296,296,296,296,296,296,243,42,251,230,42,42,42,42,296,296,296,296,296,296,296,238,296,296,296,296,296,296,296,
296,296,296,296,42,296,231,25,26,42,296,296,296,296,296,296,296,42,42,42,238,296,300,296,296,296,296,296,296,243,42,231,250,42,42,345,346,346,346,346,347,296,296,228,253,296,296,296,42,296,296,296,
296,296,296,42,42,296,241,296,42,42,296,296,296,296,296,296,296,296,296,228,253,296,300,296,296,296,296,296,296,243,42,240,296,296,296,355,356,356,356,356,356,346,346,358,122,122,122,123,42,296,296,42,
296,296,296,296,296,231,250,42,42,296,296,228,229,229,229,229,229,229,229,253,296,296,300,296,296,296,296,228,229,253,42,240,296,42,42,355,356,348,349,350,356,356,356,368,353,162,162,162,122,123,296,296,
296,296,296,296,296,241,296,42,42,228,229,253,231,249,249,249,249,249,249,233,296,296,240,296,296,296,296,238,42,42,231,250,42,42,42,355,356,358,362,371,350,362,362,362,358,162,162,162,162,162,122,122,
296,296,296,296,296,241,42,42,42,248,249,249,250,296,296,296,42,42,42,248,233,296,251,230,296,296,296,238,42,42,240,296,42,42,345,356,356,358,362,351,370,362,362,362,368,353,162,162,162,162,162,162,
296,296,296,42,42,241,42,42,296,296,42,296,42,296,296,42,42,42,42,42,24,233,296,251,252,252,252,253,42,7,26,42,42,42,355,356,348,373,362,360,362,362,362,362,362,358,162,162,162,162,162,162,
296,296,296,296,296,241,296,296,296,296,296,296,42,296,42,4,5,5,5,5,5,253,296,231,249,25,25,25,25,26,296,296,296,296,355,356,368,353,362,360,362,362,362,362,362,358,162,162,162,162,162,162,
296,296,296,42,296,241,296,296,296,296,296,296,296,4,5,29,42,7,8,8,8,232,232,250,296,296,296,296,42,42,42,296,296,296,355,356,356,358,362,371,350,362,362,362,348,373,162,162,162,162,162,162,
296,296,296,42,296,241,296,296,296,296,296,4,28,29,296,7,25,26,42,42,42,42,42,296,296,42,42,42,42,42,42,296,296,42,355,356,356,368,353,362,371,350,362,362,368,353,162,162,162,162,162,162,
296,296,296,296,296,241,296,296,296,4,5,29,296,296,296,241,42,42,42,42,42,42,42,42,42,296,296,228,229,229,229,229,230,42,365,366,366,356,358,362,362,360,362,362,362,358,162,162,162,162,162,162,
296,296,296,296,296,241,296,296,296,14,296,42,296,296,42,251,252,252,252,252,252,6,42,42,42,42,42,243,42,296,296,45,251,252,230,296,42,355,358,362,362,371,350,362,362,358,162,162,162,162,162,162,
296,296,296,296,296,241,296,296,296,19,296,231,232,232,25,9,296,231,25,9,42,251,252,252,252,252,252,253,296,231,232,232,233,296,251,230,296,355,368,369,353,362,371,372,372,373,162,162,162,162,162,162,
296,296,296,296,296,241,296,296,4,29,296,16,296,296,296,19,296,241,296,24,25,25,25,249,249,249,249,249,232,250,296,296,238,296,296,240,296,355,356,356,368,369,353,362,362,362,162,162,162,184,185,186,
296,296,296,296,296,241,296,296,24,9,296,16,296,296,296,19,296,241,296,296,296,296,296,296,296,296,296,42,296,296,42,42,238,296,296,240,296,355,356,356,356,356,368,369,369,353,162,162,162,194,195,196,
296,296,296,296,296,241,296,296,296,14,296,16,296,296,296,24,25,26,296,296,296,296,296,296,296,296,42,296,296,42,42,42,238,296,296,240,296,355,356,356,356,356,356,356,356,368,353,162,162,204,205,206,
296,296,296,296,296,241,42,296,296,24,25,26,296,296,296,296,296,296,296,296,296,296,296,296,296,296,296,296,296,296,228,252,253,296,345,147,148,126,356,356,356,356,356,356,356,356,358,162,162,162,162,162,
296,296,296,296,296,241,42,42,296,296,296,296,296,296,296,296,296,296,296,296,296,296,296,296,296,296,296,228,229,229,253,296,296,296,127,128,128,146,356,356,356,356,356,356,356,356,358,162,162,162,162,162,
296,296,296,296,296,241,42,296,296,296,296,296,296,296,296,296,296,296,296,296,296,296,296,296,296,296,296,238,296,296,296,296,296,296,137,356,356,356,356,356,356,356,356,356,356,356,358,162,162,162,162,162,
296,296,296,296,296,251,252,252,252,252,252,252,252,252,252,252,252,252,252,252,252,252,252,252,252,252,252,29,42,42,42,42,42,121,147,148,148,148,148,148,148,148,148,148,148,148,149,162,162,162,162,162,
296,296,296,296,296,296,296,296,296,296,296,296,296,296,42,42,42,42,42,42,42,42,42,42,42,42,42,42,42,42,42,42,42,131,162,162,162,162,162,162,162,162,162,162,162,162,162,162,162,162,162,162,
296,296,296,42,42,42,42,42,42,42,42,42,296,296,296,42,42,42,42,42,42,42,42,42,42,42,296,296,296,42,42,42,42,141,162,162,162,162,162,162,162,162,162,162,162,162,162,162,162,162,162,162,
296,296,296,42,42,42,42,42,42,42,42,42,42,42,296,296,42,42,42,42,42,42,42,42,42,42,42,296,296,296,42,42,42,42,131,162,296,162,162,406,407,162,162,162,162,162,162,162,162,162,162,162,
296,296,296,42,42,42,42,42,42,42,42,42,42,296,296,296,42,42,42,42,42,42,42,42,42,42,42,42,42,296,296,42,42,42,131,162,162,162,162,416,417,162,162,162,162,162,162,162,162,162,162,162,
296,296,296,296,296,296,296,296,296,42,42,42,42,296,296,296,42,42,42,42,42,42,42,42,42,42,42,42,296,296,296,296,296,296,131,162,162,162,425,426,427,162,162,162,162,162,162,162,162,162,162,162
</data>
 </layer>
 <objectgroup id="4" name="Entities">
  <object id="38" name="Player" x="1597.69" y="1538.91">
   <point/>
  </object>
  <object id="39" name="Enemy" x="3128.37" y="1637.33">
   <point/>
  </object>
  <object id="40" name="Enemy" x="141.33" y="1447.51">
   <point/>
  </object>
  <object id="41" name="kill" x="2622.67" y="557.822">
   <point/>
  </object>
  <object id="45" name="Enemy" x="1727.76" y="253.94">
   <point/>
  </object>
  <object id="48" name="kill" x="671.319" y="1112.34">
   <point/>
  </object>
  <object id="52" name="Warp3" x="1207.39" y="2232.24">
   <point/>
  </object>
  <object id="54" name="Warp1" x="2750.55" y="2696.85">
   <point/>
  </object>
  <object id="58" name="kill" x="1442.18" y="2266.43">
   <point/>
  </object>
  <object id="63" name="Enemy" x="145.939" y="1618.06">
   <point/>
  </object>
  <object id="64" name="Warp2" x="1986" y="2547.52">
   <point/>
  </object>
  <object id="66" name="Enemy" x="3171.52" y="2906.42">
   <point/>
  </object>
  <object id="68" name="Enemy" x="133.46" y="2902.3">
   <point/>
  </object>
  <object id="69" name="Enemy" x="122.06" y="423.15">
   <point/>
  </object>
  <object id="70" name="kill" x="799.455" y="2068.49">
   <point/>
  </object>
  <object id="71" name="Enemy" x="3142.55" y="281.818">
   <point/>
  </object>
  <object id="179" name="Warp4" x="2909.91" y="427.545">
   <point/>
  </object>
  <object id="180" name="Goal" x="445.455" y="457.576">
   <point/>
  </object>
  <object id="237" name="Enemy" x="136.48" y="3045.09">
   <point/>
  </object>
  <object id="383" name="Warp1e" x="1792" y="2580.67">
   <point/>
  </object>
  <object id="385" name="Warp4e" x="1581.5" y="2256">
   <point/>
  </object>
  <object id="386" name="Warp2e" x="2523.5" y="2611.5">
   <point/>
  </object>
  <object id="387" name="Warp3e" x="2773" y="496">
   <point/>
  </object>
  <object id="392" name="Enemy" x="860" y="282.667">
   <point/>
  </object>
  <object id="393" name="Enemy" x="554.667" y="574.667">
   <point/>
  </object>
 </objectgroup>
 <objectgroup id="2" name="Collisions">
  <object id="74" x="349" y="1609.33" width="230.667" height="122.667"/>
  <object id="75" x="1725.33" y="2237.33" width="388.666" height="140"/>
  <object id="76" x="1210.67" y="1724" width="128" height="265.334"/>
  <object id="77" x="1284" y="766.666" width="126" height="204.334"/>
  <object id="78" x="1274" y="295.333" width="137.333" height="348"/>
  <object id="79" x="1209.34" y="958" width="261.333" height="128.666"/>
  <object id="80" x="326" y="2813.33" width="1493.33" height="124"/>
  <object id="81" x="1721.67" y="2681.33" width="330" height="168.667"/>
  <object id="82" x="1915.33" y="2620.33" width="232.667" height="81.3333"/>
  <object id="83" x="2067.34" y="2674.66" width="174.667" height="154"/>
  <object id="84" x="2557" y="2374.33" width="235" height="125.667"/>
  <object id="85" x="2682.33" y="2362.67" width="282" height="203.667"/>
  <object id="86" x="2107.33" y="2811.48" width="1110.55" height="183.03"/>
  <object id="88" x="2362.94" y="1788.12" width="200.667" height="455"/>
  <object id="89" x="2366" y="1367" width="196.667" height="231.333"/>
  <object id="90" x="2234.67" y="1150.33" width="201.667" height="195.333"/>
  <object id="91" x="1790.67" y="504" width="196" height="213.333"/>
  <object id="92" x="1253.34" y="277.333" width="1806.67" height="110.667"/>
  <object id="94" x="1597.34" y="572" width="388" height="194.667"/>
  <object id="95" x="1147.33" y="524" width="201.334" height="436"/>
  <object id="96" x="1087.33" y="422.333" width="124.333" height="150.667"/>
  <object id="97" x="832.333" y="405.667" width="317.667" height="110.667"/>
  <object id="98" x="830.333" y="323.333" width="81.667" height="191.333"/>
  <object id="99" x="139.03" y="308.212" width="242.667" height="558.333"/>
  <object id="100" x="341.333" y="765.333" width="343.667" height="54.667"/>
  <object id="101" x="206" y="923.67" width="178.333" height="528"/>
  <object id="157" x="1274.67" y="1470" width="196.667" height="573"/>
  <object id="158" x="1082.67" y="1212.33" width="232" height="199.667"/>
  <object id="159" x="1210" y="1427.33" width="104" height="114"/>
  <object id="160" x="1210" y="1089.33" width="201.333" height="314.333"/>
  <object id="161" x="1149.67" y="1409.33" width="322.667" height="64"/>
  <object id="177" x="319.757" y="640.152" width="129.334" height="134.666"/>
  <object id="240" x="326.333" y="166.667" width="589" height="216"/>
  <object id="242" x="509.167" y="702.667" width="256.667" height="113.667"/>
  <object id="243" x="702.667" y="642.167" width="256.667" height="113.667"/>
  <object id="244" x="768.667" y="706.833" width="252.667" height="379.333"/>
  <object id="245" x="277.667" y="911.167" width="554.667" height="113.667"/>
  <object id="246" x="258.666" y="1406.17" width="314.667" height="113.667"/>
  <object id="247" x="510.833" y="1281" width="178.333" height="188"/>
  <object id="248" x="574.833" y="1215" width="194.333" height="211"/>
  <object id="249" x="512.833" y="1411" width="316.333" height="252"/>
  <object id="250" x="717.833" y="1469" width="178.333" height="131"/>
  <object id="251" x="274.833" y="1730.5" width="178.333" height="131"/>
  <object id="252" x="206.834" y="1798" width="178.333" height="1029"/>
  <object id="253" x="2172" y="2619.67" width="263.334" height="135.333"/>
  <object id="254" x="1724" y="2301.33" width="513.999" height="133.333"/>
  <object id="255" x="2044.67" y="2366" width="258.666" height="268"/>
  <object id="256" x="2933.67" y="2562" width="169.666" height="268"/>
  <object id="257" x="2875.17" y="2473" width="167.666" height="153"/>
  <object id="258" x="572" y="1852.17" width="266.667" height="134.334"/>
  <object id="259" x="701.333" y="1788" width="576" height="134.667"/>
  <object id="261" x="1851.33" y="640" width="196" height="261.333"/>
  <object id="262" x="1851.33" y="764" width="328" height="133.334"/>
  <object id="263" x="1536.67" y="766.667" width="257.333" height="130"/>
  <object id="264" x="1593.33" y="900" width="260" height="64"/>
  <object id="265" x="1600.67" y="960" width="321.333" height="64"/>
  <object id="266" x="1659.33" y="1024" width="578.666" height="64"/>
  <object id="267" x="1724" y="1084" width="645.333" height="72"/>
  <object id="268" x="1724.67" y="1157.33" width="258.666" height="64"/>
  <object id="269" x="1724.67" y="1220" width="198.666" height="64"/>
  <object id="270" x="1659.33" y="1282" width="262.667" height="189.333"/>
  <object id="271" x="1805.33" y="1344" width="178.667" height="133.334"/>
  <object id="272" x="1726" y="1474.67" width="321.333" height="64"/>
  <object id="273" x="1911.33" y="1601.33" width="198.666" height="129.333"/>
  <object id="274" x="1850" y="1472" width="201.333" height="449.333"/>
  <object id="275" x="1720.67" y="1785.33" width="266.667" height="268"/>
  <object id="276" x="1406.67" y="1913.33" width="132" height="133.334"/>
  <object id="277" x="1444.67" y="1979.33" width="479.999" height="136"/>
  <object id="278" x="958.667" y="2050.67" width="579.999" height="128"/>
  <object id="279" x="830.667" y="2107.5" width="321.334" height="131.667"/>
  <object id="280" x="698" y="2170.17" width="332.001" height="183.667"/>
  <object id="281" x="569.333" y="2234" width="202.667" height="454.667"/>
  <object id="282" x="507.333" y="2430.17" width="184.001" height="131.667"/>
  <object id="283" x="703.333" y="2307.5" width="341.334" height="131.667"/>
  <object id="284" x="955.333" y="2362.67" width="198.667" height="265.334"/>
  <object id="285" x="1001.33" y="2302.17" width="406.667" height="137"/>
  <object id="286" x="1210" y="2362.17" width="717.334" height="137"/>
  <object id="287" x="2301.17" y="1216.33" width="264.667" height="195.333"/>
  <object id="288" x="2426.5" y="2183.17" width="261" height="252.667"/>
  <object id="289" x="2582.5" y="2301.17" width="166" height="119.667"/>
  <object id="290" x="2299.5" y="1979.17" width="129" height="134.667"/>
  <object id="291" x="2494.5" y="1850.67" width="129" height="134.667"/>
  <object id="292" x="2493.5" y="2108.67" width="129" height="134.667"/>
  <object id="293" x="2875.17" y="1599" width="169.666" height="784"/>
  <object id="294" x="2812.5" y="2106.67" width="247" height="131.667"/>
  <object id="295" x="2751.67" y="1661.33" width="264.667" height="195.333"/>
  <object id="296" x="2812.17" y="1791.33" width="201.667" height="195.333"/>
  <object id="297" x="2812.17" y="1083.33" width="171.667" height="603.333"/>
  <object id="298" x="2745.67" y="1034.33" width="240.667" height="185.333"/>
  <object id="299" x="2620.67" y="956.333" width="344.667" height="197.333"/>
  <object id="300" x="2555.67" y="955.333" width="505.667" height="136.333"/>
  <object id="301" x="2875.67" y="890.333" width="240.667" height="185.333"/>
  <object id="302" x="2939.67" y="729.333" width="240.667" height="185.333"/>
  <object id="303" x="2363.33" y="700.333" width="832.67" height="135.667"/>
  <object id="304" x="2941.67" y="318.667" width="240.667" height="276.666"/>
  <object id="305" x="2171.67" y="364.334" width="198.667" height="276.666"/>
  <object id="306" x="2237" y="447.334" width="195.334" height="258"/>
  <object id="307" x="2300.33" y="574" width="196.667" height="196"/>
  <object id="308" x="2411" y="636.667" width="280.667" height="85.9997"/>
  <object id="309" x="2751.67" y="637.333" width="192" height="86.6667"/>
  <object id="310" x="2813.33" y="573.333" width="232.667" height="91.3334"/>
  <object id="311" x="1407.17" y="1370.5" width="63.667" height="40"/>
  <object id="312" x="958.167" y="666.667" width="63.667" height="40"/>
  <object id="313" x="544.167" y="662.5" width="159.167" height="40"/>
  <object id="314" x="447.167" y="726.5" width="63.667" height="40"/>
  <object id="315" x="382.167" y="599.5" width="63.667" height="40"/>
  <object id="316" x="514.167" y="1240" width="63.667" height="40"/>
  <object id="317" x="767.167" y="1372" width="63.667" height="40"/>
  <object id="318" x="831.167" y="1431" width="63.667" height="40"/>
  <object id="319" x="642.167" y="1815" width="63.667" height="40"/>
  <object id="320" x="771.167" y="2133" width="63.667" height="40"/>
  <object id="321" x="605.167" y="2203" width="97.667" height="40"/>
  <object id="322" x="510.167" y="2394" width="63.667" height="40"/>
  <object id="323" x="1408.17" y="2327" width="63.667" height="40"/>
  <object id="325" x="2114.17" y="2263" width="63.667" height="40"/>
  <object id="326" x="2236.17" y="2328" width="63.667" height="40"/>
  <object id="327" x="2304.17" y="2584" width="110" height="40"/>
  <object id="328" x="1753.84" y="2645" width="165" height="40"/>
  <object id="329" x="1408.67" y="2327" width="316.167" height="40"/>
  <object id="330" x="2560.17" y="1812.5" width="63.667" height="40"/>
  <object id="331" x="2300.67" y="1940" width="63.667" height="40"/>
  <object id="332" x="2558.67" y="2070.5" width="63.667" height="40"/>
  <object id="333" x="2623.5" y="2144" width="63.667" height="40"/>
  <object id="334" x="2046.17" y="725.333" width="63.667" height="40"/>
  <object id="335" x="1984.83" y="602" width="63.667" height="40"/>
  <object id="336" x="1729.5" y="533.333" width="63.667" height="40"/>
  <object id="337" x="1347.5" y="727.333" width="63.667" height="40"/>
  <object id="338" x="1405.5" y="920" width="63.667" height="40"/>
  <object id="339" x="1920.83" y="985" width="286.167" height="40"/>
  <object id="340" x="1855.5" y="921.333" width="63.667" height="40"/>
  <object id="341" x="2239.33" y="1045.75" width="97.667" height="40"/>
  <object id="342" x="2370.67" y="1109" width="63.667" height="40"/>
  <object id="343" x="2435.67" y="1179" width="89.667" height="40"/>
  <object id="344" x="1983.17" y="1432" width="63.667" height="40"/>
  <object id="345" x="1922.17" y="1304" width="63.667" height="40"/>
  <object id="346" x="2049.17" y="1560" width="63.667" height="40"/>
  <object id="347" x="1753.5" y="1746" width="99.3337" height="40"/>
  <object id="348" x="1661.17" y="1241" width="63.667" height="40"/>
  <object id="349" x="2048.67" y="1562.5" width="63.667" height="40"/>
  <object id="350" x="1471.83" y="1872.67" width="63.667" height="40"/>
  <object id="351" x="2594.67" y="920.5" width="285.667" height="40"/>
  <object id="352" x="2851.33" y="537.333" width="93.167" height="40"/>
  <object id="353" x="2496.17" y="596.667" width="63.667" height="40"/>
  <object id="354" x="2430.83" y="534.667" width="63.667" height="40"/>
  <object id="355" x="2366.17" y="409.333" width="63.667" height="40"/>
  <object id="356" x="2750.83" y="600.667" width="63.667" height="40"/>
  <object id="357" x="1536.17" y="726" width="63.667" height="40"/>
  <object id="358" x="2111.17" y="725.25" width="46.667" height="40"/>
  <object id="359" x="1811.17" y="471.5" width="157.667" height="40"/>
  <object id="361" x="1633.67" y="535" width="157.667" height="40"/>
  <object id="362" x="2497.67" y="597" width="157.667" height="40"/>
  <object id="364" x="2387.5" y="1751" width="157.667" height="40"/>
  <object id="365" x="1754.83" y="2197.67" width="331.667" height="40"/>
  <object id="366" x="385.5" y="2774.67" width="1342.33" height="40"/>
  <object id="367" x="2241.84" y="2769" width="694.33" height="40"/>
  <object id="368" x="744.166" y="1752" width="472.667" height="40"/>
  <object id="371" x="382.666" y="1368.5" width="128.167" height="40"/>
  <object id="372" x="731.666" y="602" width="198.667" height="40"/>
  <object id="373" x="2686.83" y="2280.67" width="63.667" height="40"/>
  <object id="374" x="2747.17" y="2327" width="130.667" height="40"/>
  <object id="376" x="1122.67" y="1175" width="88.167" height="40"/>
  <object id="377" x="985.167" y="2011.5" width="307.667" height="40"/>
  <object id="378" x="1020.92" y="2265" width="364.167" height="40"/>
  <object id="382" x="1439.67" y="1946" width="472.667" height="40"/>
  <object id="391" x="601.167" y="1176.5" width="137.667" height="40"/>
 </objectgroup>
 <objectgroup id="3" name="Objects">
  <object id="1" gid="218" x="1764.97" y="1767.27" width="64" height="104"/>
  <object id="3" gid="218" x="893.394" y="2619.7" width="64" height="104"/>
  <object id="4" gid="219" x="2809.51" y="2107.39" width="64" height="128"/>
  <object id="5" gid="219" x="1541.09" y="2177.7" width="64" height="128"/>
  <object id="14" gid="220" x="2822" y="1594" width="60" height="60"/>
  <object id="15" gid="213" x="2864.67" y="726.67" width="128" height="192"/>
  <object id="16" gid="213" x="780.667" y="819.333" width="128" height="192"/>
  <object id="17" gid="212" x="622.666" y="837.333" width="56" height="60"/>
  <object id="18" gid="215" x="1625.32" y="821.788" width="64" height="128"/>
  <object id="19" gid="215" x="2413.33" y="712" width="64" height="128"/>
  <object id="20" gid="215" x="580" y="1401.33" width="64" height="128"/>
  <object id="21" gid="213" x="1654.72" y="710.182" width="128" height="192"/>
  <object id="22" gid="214" x="1792" y="1120" width="128" height="192"/>
  <object id="23" gid="214" x="1270.18" y="1881.09" width="128" height="192"/>
  <object id="24" name="tree" gid="214" x="2689.7" y="1659.52" width="128" height="192"/>
  <object id="25" gid="214" x="1849.33" y="2883.15" width="128" height="192"/>
  <object id="27" gid="214" x="134.848" y="2978.72" width="128" height="192"/>
  <object id="28" gid="214" x="614.667" y="1520.67" width="128" height="192"/>
  <object id="31" gid="212" x="2241" y="1080" width="56" height="60"/>
  <object id="32" gid="212" x="2760.42" y="1924.91" width="56" height="60"/>
  <object id="33" gid="211" x="2336.66" y="868.666" width="60" height="60"/>
  <object id="34" gid="211" x="1740" y="1397.33" width="60" height="60"/>
  <object id="35" gid="211" x="1476.67" y="1775.66" width="60" height="60"/>
  <object id="36" gid="211" x="587.333" y="1704" width="60" height="60"/>
  <object id="37" gid="211" x="1266.36" y="1307.67" width="60" height="60"/>
  <object id="122" gid="213" x="183.745" y="2676.46" width="128" height="192"/>
  <object id="123" gid="213" x="60.7208" y="2279.7" width="128" height="192"/>
  <object id="124" gid="214" x="239.716" y="1672.5" width="128" height="192"/>
  <object id="125" gid="214" x="307.13" y="3075.05" width="128" height="192"/>
  <object id="126" gid="214" x="184.285" y="2031.16" width="128" height="192"/>
  <object id="127" gid="214" x="29.044" y="1357.72" width="128" height="192"/>
  <object id="128" gid="214" x="98.662" y="990.85" width="128" height="192"/>
  <object id="130" gid="214" x="1616.77" y="212.864" width="128" height="192"/>
  <object id="131" gid="214" x="1973.06" y="279.954" width="128" height="192"/>
  <object id="132" gid="214" x="2914.3" y="957.01" width="128" height="192"/>
  <object id="133" gid="214" x="3124" y="1165.57" width="128" height="192"/>
  <object id="182" gid="214" x="2976.02" y="1629.7" width="128" height="192"/>
  <object id="135" gid="215" x="2893.03" y="1313.41" width="64" height="128"/>
  <object id="136" name="tree" gid="215" x="2722.89" y="698.157" width="64" height="128"/>
  <object id="137" gid="215" x="2195.28" y="364.752" width="64" height="128"/>
  <object id="138" gid="215" x="1579.8" y="275.288" width="64" height="128"/>
  <object id="139" gid="215" x="1128.04" y="266.793" width="64" height="128"/>
  <object id="140" gid="215" x="548.881" y="249.607" width="64" height="128"/>
  <object id="142" gid="215" x="250.741" y="897.512" width="64" height="128"/>
  <object id="143" gid="215" x="209.154" y="1094.27" width="64" height="128"/>
  <object id="144" name="tree" gid="215" x="405.927" y="1108.63" width="64" height="128"/>
  <object id="145" gid="215" x="327.184" y="1511.05" width="64" height="128"/>
  <object id="146" name="tree" gid="215" x="448.801" y="1789.11" width="64" height="128"/>
  <object id="147" name="tree" gid="216" x="2431.87" y="2504.16" width="128" height="192"/>
  <object id="148" gid="211" x="1931.8" y="1268.1" width="60" height="60"/>
  <object id="149" gid="212" x="2185.95" y="1354.39" width="56" height="60"/>
  <object id="150" name="tree" gid="214" x="2118.98" y="1326.32" width="128" height="192"/>
  <object id="151" name="tree" gid="215" x="1590.34" y="1421.68" width="64" height="128"/>
  <object id="152" gid="215" x="1208" y="1345.21" width="64" height="128"/>
  <object id="153" gid="218" x="386.977" y="1185.37" width="64" height="104"/>
  <object id="154" name="tree" gid="214" x="1480.61" y="1903.88" width="128" height="192"/>
  <object id="155" name="tree" gid="215" x="1637.7" y="1950.91" width="64" height="128"/>
  <object id="162" name="tree" gid="214" x="2049.92" y="1595.52" width="128" height="192"/>
  <object id="163" gid="214" x="1206.36" y="568.545" width="128" height="192"/>
  <object id="164" gid="214" x="862.421" y="247.03" width="128" height="192"/>
  <object id="165" gid="213" x="1282.85" y="253.455" width="128" height="192"/>
  <object id="166" name="tree" gid="215" x="762" y="478.667" width="64" height="128"/>
  <object id="168" gid="215" x="749.333" y="912.667" width="64" height="128"/>
  <object id="169" gid="215" x="1153.33" y="500.849" width="64" height="128"/>
  <object id="170" name="tree" gid="214" x="2542.18" y="454.425" width="128" height="192"/>
  <object id="171" name="tree" gid="214" x="2381.33" y="900" width="128" height="192"/>
  <object id="172" name="tree" gid="214" x="1670.06" y="570.788" width="128" height="192"/>
  <object id="173" name="tree" gid="214" x="2686" y="1059.33" width="128" height="192"/>
  <object id="174" name="tree" gid="214" x="596.242" y="2219.88" width="128" height="192"/>
  <object id="183" gid="212" x="895.545" y="2107.72" width="56" height="60"/>
  <object id="184" gid="217" x="2412.85" y="465.909" width="64" height="192"/>
  <object id="185" gid="221" x="2525.58" y="459.364" width="56" height="60"/>
  <object id="186" gid="220" x="2569.03" y="488.545" width="60" height="60"/>
  <object id="188" gid="220" x="1606.36" y="1830" width="60" height="60"/>
  <object id="189" gid="221" x="1656.85" y="1851.21" width="56" height="60"/>
  <object id="190" name="tree" gid="213" x="642" y="446" width="128" height="192"/>
  <object id="191" gid="211" x="696" y="490" width="60" height="60"/>
  <object id="192" gid="212" x="654" y="474.667" width="56" height="60"/>
  <object id="193" gid="216" x="2262" y="3138" width="128" height="192"/>
  <object id="195" gid="214" x="752" y="3118" width="128" height="192"/>
  <object id="196" gid="213" x="1182" y="3032" width="128" height="192"/>
  <object id="197" gid="216" x="2686" y="3090" width="128" height="192"/>
  <object id="199" gid="215" x="1974.06" y="2970.06" width="64" height="128"/>
  <object id="200" gid="215" x="2497.45" y="3127.15" width="64" height="128"/>
  <object id="204" gid="215" x="2913.45" y="1694.3" width="64" height="128"/>
  <object id="205" gid="215" x="3246.79" y="1167.03" width="64" height="128"/>
  <object id="206" gid="213" x="3139.03" y="1568.73" width="128" height="192"/>
  <object id="207" gid="211" x="3073.5" y="1783.57" width="60" height="60"/>
  <object id="208" gid="211" x="3148.79" y="2720.91" width="60" height="60"/>
  <object id="209" gid="211" x="2057.88" y="3114.85" width="60" height="60"/>
  <object id="210" gid="211" x="1497.27" y="2960.3" width="60" height="60"/>
  <object id="211" gid="211" x="57.8788" y="2739.09" width="60" height="60"/>
  <object id="212" gid="211" x="118.485" y="2014.85" width="60" height="60"/>
  <object id="213" gid="211" x="206.364" y="1333.03" width="60" height="60"/>
  <object id="214" gid="220" x="73.0303" y="557.273" width="60" height="60"/>
  <object id="215" gid="211" x="988.182" y="278.485" width="60" height="60"/>
  <object id="216" gid="211" x="2609.39" y="142.121" width="60" height="60"/>
  <object id="217" gid="211" x="3206.36" y="496.667" width="60" height="60"/>
  <object id="218" gid="212" x="3126.55" y="1711.82" width="56" height="60"/>
  <object id="219" gid="212" x="3087.15" y="636.061" width="56" height="60"/>
  <object id="220" gid="212" x="2326.55" y="120.909" width="56" height="60"/>
  <object id="221" gid="212" x="762.909" y="287.576" width="56" height="60"/>
  <object id="222" gid="221" x="147.758" y="675.455" width="56" height="60"/>
  <object id="223" gid="212" x="244.727" y="1387.58" width="56" height="60"/>
  <object id="224" gid="212" x="75.0303" y="2117.88" width="56" height="60"/>
  <object id="225" gid="212" x="84.1212" y="2669.39" width="56" height="60"/>
  <object id="226" gid="212" x="584.121" y="3054.24" width="56" height="60"/>
  <object id="227" gid="212" x="929.576" y="3151.21" width="56" height="60"/>
  <object id="228" gid="212" x="1787.15" y="3026.97" width="56" height="60"/>
  <object id="229" gid="212" x="3068.97" y="3023.94" width="56" height="60"/>
  <object id="230" gid="212" x="3265.94" y="1333.03" width="56" height="60"/>
  <object id="231" gid="215" x="1024.64" y="2560.88" width="64" height="128"/>
  <object id="232" gid="213" x="800" y="2349.33" width="128" height="192"/>
  <object id="233" gid="212" x="1421.33" y="2039.7" width="56" height="60"/>
  <object id="234" gid="211" x="1344.67" y="2104.67" width="60" height="60"/>
  <object id="235" gid="217" x="2430.67" y="1530.67" width="64" height="192"/>
  <object id="380" gid="212" x="2715" y="1689.5" width="56" height="60"/>
  <object id="381" gid="211" x="2730" y="1898" width="60" height="60"/>
  <object id="394" gid="216" x="2992" y="3154.67" width="128" height="192"/>
  <object id="395" gid="216" x="3205.33" y="317.333" width="128" height="192"/>
  <object id="397" gid="216" x="2811" y="226" width="128" height="192"/>
  <object id="398" gid="222" x="80" y="241.333" width="128" height="192"/>
  <object id="399" gid="224" x="157.333" y="281.333" width="64" height="128"/>
  <object id="400" gid="223" x="328" y="134" width="128" height="192"/>
  <object id="401" gid="224" x="530" y="118" width="64" height="128"/>
  <object id="402" gid="218" x="400" y="304" width="64" height="104"/>
  <object id="403" gid="217" x="28" y="700" width="64" height="192"/>
  <object id="404" name="tree" gid="216" x="2558" y="2093.33" width="128" height="192"/>
  <object id="406" gid="216" x="2778" y="2461" width="128" height="192"/>
  <object id="407" gid="216" x="3124" y="2056" width="128" height="192"/>
  <object id="408" gid="216" x="3088" y="2350" width="128" height="192"/>
  <object id="409" gid="216" x="2446" y="2920" width="128" height="192"/>
  <object id="410" gid="213" x="1799" y="1456" width="128" height="192"/>
 </objectgroup>
</map>
